img/envelope.svg

<svg version="1.1" xmlns="http://www.w3.org/2000/svg" xmlns:xlink="http://www.w3.org/1999/xlink" width="16" height="16" viewBox="0,0,256,256"><g fill="#ffb03b" fill-rule="nonzero" stroke="none" stroke-width="1" stroke-linecap="butt" stroke-linejoin="miter" stroke-miterlimit="10" stroke-dasharray="" stroke-dashoffset="0" font-family="none" font-weight="none" font-size="none" text-anchor="none" style="mix-blend-mode: normal"><g transform="scale(16,16)"><path d="M0,4c0,-1.10457 0.89543,-2 2,-2h12c1.10457,0 2,0.89543 2,2v8c0,1.10457 -0.89543,2 -2,2h-12c-1.10457,0 -2,-0.89543 -2,-2zM2,3c-0.55228,0 -1,0.44772 -1,1v0.217l7,4.2l7,-4.2v-0.217c0,-0.55228 -0.44772,-1 -1,-1zM15,5.383l-4.708,2.825l4.708,2.897zM14.966,12.259l-5.64,-3.471l-1.326,0.795l-1.326,-0.795l-5.64,3.47c0.11684,0.43754 0.51313,0.74193 0.966,0.742h12c0.45258,0.00006 0.84878,-0.30386 0.966,-0.741zM1,11.105l4.708,-2.897l-4.708,-2.825z"></path></g></g></svg>

<svg xmlns="http://www.w3.org/2000/svg" width="16" height="16" fill="#84b63f" class="bi bi-envelope" viewBox="0 0 16 16">
  <path d="M0 4a2 2 0 0 1 2-2h12a2 2 0 0 1 2 2v8a2 2 0 0 1-2 2H2a2 2 0 0 1-2-2V4Zm2-1a1 1 0 0 0-1 1v.217l7 4.2 7-4.2V4a1 1 0 0 0-1-1H2Zm13 2.383-4.708 2.825L15 11.105V5.383Zm-.034 6.876-5.64-3.471L8 9.583l-1.326-.795-5.64 3.47A1 1 0 0 0 2 13h12a1 1 0 0 0 .966-.741ZM1 11.105l4.708-2.897L1 5.383v5.722Z"/>
</svg>
